X: 5452
T: Bunch Of Green Rushes, The
R: reel
M: 4/4
K: Amixolydian
GEDB, (3CEC CA|GEDG EAAE|GEDB, {C}B,A,ed|cABG EAAE|
GEDB, CCCA|GEDG EAAE|GEDE CEed|cABG EAAG||
|:EAAE GEDB,|CDEA GEDG|EAAE GE (3DEF|1 GABe dBAG:|2 GABe dBGB||
AEcE eA (3cBA|GBDG BGdB|AcEA eA (3cBA|GEDG EAAE|
AAEA eA (3cBA|GBDG BA (3Bcd|ecdB A3 F|GEDG EAAE||

